packages/icons/svg/24/ImageHidden.svg

<svg width="24" height="24" viewBox="0 0 24 24" fill="none" xmlns="http://www.w3.org/2000/svg">
<path d="M6.10558 2.4472L16.1056 22.4472L17.8944 21.5528L7.89442 1.5528L6.10558 2.4472Z" fill="#858585"/>
<path fill-rule="evenodd" clip-rule="evenodd" d="M21 17C21 18.5789 19.7803 19.8729 18.2317 19.9912L17.2361 18H18C18.5523 18 19 17.5523 19 17V12.5L15.3889 14.3056L10.2361 4H18C19.6569 4 21 5.34314 21 7V17ZM18 9C18 10.1046 17.1046 11 16 11C14.8954 11 14 10.1046 14 9C14 7.89545 14.8954 7 16 7C17.1046 7 18 7.89545 18 9Z" fill="#858585"/>
<path d="M5 13.5L9.41113 11.2944L5.76831 4.00882C4.21973 4.12711 3 5.42111 3 7V17C3 18.6569 4.34314 20 6 20H13.7639L12.7639 18H6C5.44769 18 5 17.5523 5 17V13.5Z" fill="#858585"/>
</svg>

<svg width="24" height="24" fill="none" xmlns="http://www.w3.org/2000/svg" viewBox="0 0 24 24"><path d="M6.106 2.447l10 20 1.788-.894-10-20-1.788.894z" fill="currentColor"></path><path fill-rule="evenodd" clip-rule="evenodd" d="M21 17a3 3 0 01-2.768 2.991L17.236 18H18a1 1 0 001-1v-4.5l-3.611 1.806L10.236 4H18a3 3 0 013 3v10zm-3-8a2 2 0 11-4 0 2 2 0 014 0z" fill="currentColor"></path><path d="M5 13.5l4.411-2.206L5.768 4.01A3 3 0 003 7v10a3 3 0 003 3h7.764l-1-2H6a1 1 0 01-1-1v-3.5z" fill="currentColor"></path></svg>
